
// FORK OF SYNTHDEFPOOL

// main location is now root
SynthDefPool.root
// and global a dictionnary of synthDesc name => gui function of alls folders loaded at init
SynthDefPool.global

// original lib is pool ...
SynthDefPool.global[\pool].value

//Now you have a main GUI func
SynthDefPool.gui


/*
 TODO :
- fix make window
- manage multi synthdef in one file
- automatic metadata ?
- name conflicts
- add some VK ? Does it exist in quarks already ?
*/


